X: 9124
T: Dad's
R: jig
M: 6/8
K: Eminor
|:B,DE FFE|FED B,DA,|B,EE EFA|FEF EDC|B,DE FFE|
FED B,DA,|1 B,EE EFA|EFE FDB,:|2 EGA Bcd|efg fed||
B2e f2e|fed BdA|BBB deg|edB cBA|
Bde f2e|fed BdA|BB,B deg|edB cBA|
B,DE FFE|FED B,DA,|B,EE EFA|FEF EDC|
B,DE FFE|FGA Bcd|egf fef|c'ba gfd||
|:efg fed|bdc acB|efg fed-|d2B- Bc/B/A|
efg fed|bdc acB|EFE EFA|1 BAF deg:|2 BAF DEG||
|:Bde EFE|FED B,DA,|B,EE EFA|B3 dBD|
Bde F2E|FED B,DA,|B,EE EFA|BAF E3:|

